Obsidian/status/22s/popcorntime-tray.svg

<svg height="22" width="22" xmlns="http://www.w3.org/2000/svg"><g fill="#d3dae3"><path d="m3.857422 3.0000002c-.47486 0-.857422.3825619-.857422.8574219v7.1425779h16v-7.1425779c0-.47484-.383422-.8574219-.857422-.8574219zm3.142578 2a1 1 0 0 1 1 1 1 1 0 0 1 -1 1 1 1 0 0 1 -1-1 1 1 0 0 1 1-1zm8 0a1 1 0 0 1 1 1 1 1 0 0 1 -1 1 1 1 0 0 1 -1-1 1 1 0 0 1 1-1zm-6 3c2.0537.31733 4 0 4 0 0 1.1046-.8954 1.9999998-2 1.9999998s-2-.8953998-2-1.9999998z" opacity=".3"/><path d="m3 11v7.142578c0 .475.382572.857422.857422.857422h14.285156c.475 0 .857422-.382422.857422-.857422v-7.142578zm3.902344 1h.195312c.499708 0 .902344.357028.902344.800781v4.398438c0 .443754-.402636.800781-.902344.800781h-.195312c-.499709 0-.902344-.357027-.902344-.800781v-4.398438c0-.443753.402635-.800781.902344-.800781zm4 0h.195312c.499708 0 .902344.357028.902344.800781v4.398438c0 .443754-.402636.800781-.902344.800781h-.195312c-.499709 0-.902344-.357027-.902344-.800781v-4.398438c0-.443753.402635-.800781.902344-.800781zm4 0h.195312c.499708 0 .902344.357028.902344.800781v4.398438c0 .443754-.402636.800781-.902344.800781h-.195312c-.499708 0-.902344-.357027-.902344-.800781v-4.398438c0-.443753.402636-.800781.902344-.800781z"/></g></svg>

<svg xmlns="http://www.w3.org/2000/svg" width="22" height="22" version="1.1">
 <defs>
  <style id="current-color-scheme" type="text/css">
   .ColorScheme-Text { color:#d3dae3; } .ColorScheme-Highlight { color:#5294e2; }
  </style>
 </defs>
 <path style="fill:currentColor;opacity:0.3" class="ColorScheme-Text" d="M 3.857422,3.0000002 C 3.382562,3.0000002 3,3.3825621 3,3.8574221 L 3,11 19,11 19,3.8574221 c 0,-0.47484 -0.383422,-0.8574219 -0.857422,-0.8574219 l -14.285156,0 z m 3.142578,2 a 1,1 0 0 1 1,1 1,1 0 0 1 -1,1 1,1 0 0 1 -1,-1 1,1 0 0 1 1,-1 z m 8,0 a 1,1 0 0 1 1,1 1,1 0 0 1 -1,1 1,1 0 0 1 -1,-1 1,1 0 0 1 1,-1 z m -6,3 c 2.0537,0.31733 4,0 4,0 C 13,9.1046002 12.1046,10 11,10 9.8954,10 9,9.1046002 9,8.0000002 Z"/>
 <path style="fill:currentColor" class="ColorScheme-Text" d="m 3,11 0,7.142578 C 3,18.617578 3.382572,19 3.857422,19 l 14.285156,0 C 18.617578,19 19,18.617578 19,18.142578 L 19,11 3,11 Z m 3.902344,1 0.195312,0 C 7.597364,12 8,12.357028 8,12.800781 l 0,4.398438 C 8,17.642973 7.597364,18 7.097656,18 L 6.902344,18 C 6.402635,18 6,17.642973 6,17.199219 L 6,12.800781 C 6,12.357028 6.402635,12 6.902344,12 Z m 4,0 0.195312,0 C 11.597364,12 12,12.357028 12,12.800781 l 0,4.398438 C 12,17.642973 11.597364,18 11.097656,18 l -0.195312,0 C 10.402635,18 10,17.642973 10,17.199219 l 0,-4.398438 C 10,12.357028 10.402635,12 10.902344,12 Z m 4,0 0.195312,0 C 15.597364,12 16,12.357028 16,12.800781 l 0,4.398438 C 16,17.642973 15.597364,18 15.097656,18 l -0.195312,0 C 14.402636,18 14,17.642973 14,17.199219 l 0,-4.398438 C 14,12.357028 14.402636,12 14.902344,12 Z"/>
</svg>
